apps/www/public/images/events/webinars/scale-to-millions-generative-ai-humata/humata-light.svg

<svg width="128" height="21" viewBox="0 0 128 21" fill="none" xmlns="http://www.w3.org/2000/svg">
<path fill-rule="evenodd" clip-rule="evenodd" d="M4.42651 3.39078C3.85187 3.39078 3.38605 3.85658 3.38605 4.43124V15.8764C3.38605 16.451 3.85187 16.9168 4.42651 16.9168H8.0681V20.0382H4.42651C2.12798 20.0382 0.264648 18.1749 0.264648 15.8764V4.43124C0.264648 2.13273 2.12798 0.269409 4.42651 0.269409H8.0681V3.39078H4.42651Z" fill="#171717"/>
<path fill-rule="evenodd" clip-rule="evenodd" d="M25.2359 16.9169C25.8106 16.9169 26.2764 16.4511 26.2764 15.8765V4.4313C26.2764 3.85664 25.8106 3.39084 25.2359 3.39084H21.5942V0.26947H25.2359C27.5344 0.26947 29.3977 2.13279 29.3977 4.4313V15.8765C29.3977 18.1749 27.5344 20.0383 25.2359 20.0383H21.5942V16.9169H25.2359Z" fill="#171717"/>
<path d="M24.7151 10.1075C24.7151 8.85346 23.7946 7.79088 22.5529 7.61173C19.8934 7.17929 17.8084 5.09121 17.379 2.43168C17.1937 1.19304 16.1311 0.272559 14.877 0.26947H14.7844C13.5303 0.26947 12.4677 1.18996 12.2885 2.43168C11.8561 5.09121 9.76803 7.1762 7.1085 7.60555C5.86986 7.79088 4.94938 8.85346 4.94629 10.1075V10.2002C4.94629 11.4543 5.86677 12.5169 7.1085 12.696C9.76803 13.1285 11.853 15.2165 12.2824 17.8761C12.4677 19.1147 13.5303 20.0352 14.7844 20.0383H14.877C16.1311 20.0383 17.1937 19.1178 17.3728 17.8761C17.8053 15.2165 19.8934 13.1316 22.5529 12.7022C23.7915 12.5169 24.712 11.4543 24.7151 10.2002V10.1075ZM21.0084 10.1909C21.0084 10.2157 20.9745 10.2373 20.9405 10.2435C17.8454 10.7469 15.4176 13.1748 14.911 16.2699C14.911 16.3038 14.8863 16.3316 14.8678 16.3316H14.7905C14.7658 16.3316 14.7442 16.2977 14.738 16.2637C14.2345 13.1686 11.8098 10.7408 8.71163 10.2342C8.67765 10.2342 8.64985 10.2095 8.64985 10.1909V10.1137C8.64985 10.089 8.68383 10.0674 8.71781 10.0612C11.8129 9.55772 14.2407 7.12986 14.7473 4.03481C14.7473 4.00083 14.772 3.97303 14.7905 3.97303H14.8678C14.8925 3.97303 14.9141 4.00701 14.9203 4.04099C15.4238 7.13604 17.8485 9.5639 20.9467 10.0705C20.9806 10.0705 21.0084 10.0952 21.0084 10.1137V10.1909Z" fill="#171717"/>
<path d="M52.0759 0.26947H55.475V19.74H52.0759V11.225H42.9406V19.74H39.5415V0.26947H42.9406V8.18787H52.0759V0.26947Z" fill="#171717"/>
<path d="M69.469 5.50305V19.7399H66.2822V18.2213C65.4856 19.1705 64.2905 20.0382 62.4848 20.0382C59.5636 20.0382 57.7578 18.0044 57.7578 14.9401V5.50305H60.9444V14.2351C60.9444 15.9705 61.6881 17.0824 63.4142 17.0824C64.8481 17.0824 66.2822 15.9977 66.2822 13.9639V5.50305H69.469Z" fill="#171717"/>
<path d="M74.9152 11.3878V19.7401H71.7285V5.50326H74.9152V7.02187C75.6854 6.07272 76.8804 5.23218 78.7393 5.23218C80.4123 5.23218 81.6605 5.99142 82.4306 7.21178C83.2804 6.28969 84.6081 5.23218 86.7592 5.23218C89.6272 5.23218 91.4861 7.29308 91.4861 10.3574V19.7401H88.2995V11.3065C88.2995 9.54388 87.6621 8.26928 85.9626 8.26928C84.6081 8.26928 83.2007 9.35397 83.2007 11.3878V19.7401H80.014V11.3065C80.014 9.54388 79.3767 8.26928 77.6771 8.26928C76.3227 8.26928 74.9152 9.35397 74.9152 11.3878Z" fill="#171717"/>
<path d="M97.6257 19.9842C94.9701 19.9842 92.9253 18.33 92.9253 15.7809C92.9253 13.0692 94.917 11.876 97.5991 11.3065L101.45 10.4929V10.2489C101.45 8.89299 100.759 8.05232 99.0597 8.05232C97.546 8.05232 96.7493 8.75745 96.3775 10.1404L93.3768 9.4354C94.0672 7.07611 96.112 5.23218 99.1925 5.23218C102.538 5.23218 104.557 6.85915 104.557 10.1404V16.269C104.557 17.0826 104.902 17.3266 105.778 17.2181V19.7401C103.468 20.0113 102.246 19.5502 101.768 18.3842C100.892 19.3876 99.4315 19.9842 97.6257 19.9842ZM101.45 14.7233V12.9879L98.4489 13.6386C97.0945 13.9369 96.0855 14.3708 96.0855 15.6453C96.0855 16.7571 96.8821 17.3809 98.1037 17.3809C99.8032 17.3809 101.45 16.4589 101.45 14.7233Z" fill="#171717"/>
<path d="M107.538 16.1605V8.26913H105.6V5.5031H107.538V1.32703H110.672V5.5031H113.593V8.26913H110.672V15.6451C110.672 16.9197 111.389 17.0553 112.531 17.0553C113.062 17.0553 113.354 17.0282 113.832 16.974V19.7128C113.248 19.8213 112.451 19.9027 111.628 19.9027C108.972 19.9027 107.538 19.062 107.538 16.1605Z" fill="#171717"/>
<path d="M119.113 19.9842C116.458 19.9842 114.413 18.33 114.413 15.7809C114.413 13.0692 116.405 11.876 119.087 11.3065L122.937 10.4929V10.2489C122.937 8.89299 122.248 8.05232 120.547 8.05232C119.034 8.05232 118.237 8.75745 117.865 10.1404L114.865 9.4354C115.555 7.07611 117.6 5.23218 120.68 5.23218C124.027 5.23218 126.044 6.85915 126.044 10.1404V16.269C126.044 17.0826 126.39 17.3266 127.266 17.2181V19.7401C124.956 20.0113 123.734 19.5502 123.256 18.3842C122.38 19.3876 120.919 19.9842 119.113 19.9842ZM122.937 14.7233V12.9879L119.937 13.6386C118.583 13.9369 117.573 14.3708 117.573 15.6453C117.573 16.7571 118.37 17.3809 119.591 17.3809C121.291 17.3809 122.937 16.4589 122.937 14.7233Z" fill="#171717"/>
</svg>

<svg xmlns="http://www.w3.org/2000/svg" width="128" height="21" fill="none" viewBox="0 0 128 21"><path fill="#171717" fill-rule="evenodd" d="M4.427 3.39a1.04 1.04 0 0 0-1.04 1.041v11.445c-.001.575.465 1.04 1.04 1.04h3.641v3.122H4.427a4.16 4.16 0 0 1-4.162-4.162V4.431A4.16 4.16 0 0 1 4.427.27h3.641v3.122zM25.236 16.917a1.04 1.04 0 0 0 1.04-1.04V4.43a1.04 1.04 0 0 0-1.04-1.04h-3.642V.269h3.642a4.16 4.16 0 0 1 4.162 4.162v11.446a4.16 4.16 0 0 1-4.162 4.161h-3.642v-3.121z" clip-rule="evenodd"/><path fill="#171717" d="M24.715 10.108c0-1.255-.92-2.317-2.162-2.496a6.26 6.26 0 0 1-5.174-5.18A2.54 2.54 0 0 0 14.877.269h-.093c-1.254 0-2.316.921-2.495 2.163a6.26 6.26 0 0 1-5.18 5.174 2.54 2.54 0 0 0-2.163 2.502v.092c0 1.254.92 2.317 2.163 2.496a6.26 6.26 0 0 1 5.173 5.18 2.54 2.54 0 0 0 2.502 2.162h.093c1.254 0 2.317-.92 2.496-2.162a6.26 6.26 0 0 1 5.18-5.174 2.54 2.54 0 0 0 2.162-2.502zm-3.707.083c0 .025-.034.046-.067.052a7.3 7.3 0 0 0-6.03 6.027c0 .034-.025.062-.043.062h-.078c-.024 0-.046-.034-.052-.068a7.3 7.3 0 0 0-6.026-6.03c-.034 0-.062-.024-.062-.043v-.077c0-.025.034-.047.068-.053a7.3 7.3 0 0 0 6.03-6.026c0-.034.024-.062.043-.062h.077c.024 0 .046.034.052.068a7.3 7.3 0 0 0 6.027 6.03c.034 0 .061.024.061.043zM52.076.27h3.399v19.47h-3.4v-8.515h-9.134v8.515h-3.4V.27h3.4v7.918h9.135zM69.469 5.503V19.74h-3.187V18.22c-.796.95-1.992 1.817-3.797 1.817-2.921 0-4.727-2.034-4.727-5.098V5.503h3.186v8.732c0 1.736.744 2.847 2.47 2.847 1.434 0 2.868-1.084 2.868-3.118v-8.46zM74.915 11.388v8.352h-3.187V5.503h3.187v1.519c.77-.95 1.965-1.79 3.824-1.79 1.673 0 2.921.76 3.692 1.98.85-.922 2.177-1.98 4.328-1.98 2.868 0 4.727 2.061 4.727 5.125v9.383H88.3v-8.433c0-1.763-.637-3.038-2.336-3.038-1.355 0-2.762 1.085-2.762 3.119v8.352h-3.187v-8.433c0-1.763-.637-3.038-2.337-3.038-1.354 0-2.762 1.085-2.762 3.119M97.626 19.984c-2.656 0-4.7-1.654-4.7-4.203 0-2.712 1.991-3.905 4.673-4.475l3.851-.813v-.244c0-1.356-.691-2.197-2.39-2.197-1.514 0-2.31.705-2.683 2.088l-3-.705c.69-2.359 2.735-4.203 5.816-4.203 3.345 0 5.364 1.627 5.364 4.908v6.129c0 .814.345 1.058 1.221.95v2.521c-2.31.271-3.532-.19-4.01-1.356-.876 1.004-2.337 1.6-4.142 1.6m3.824-5.26v-1.736l-3.001.65c-1.355.299-2.364.733-2.364 2.007 0 1.112.797 1.736 2.019 1.736 1.7 0 3.346-.922 3.346-2.658M107.538 16.16V8.27H105.6V5.502h1.938V1.327h3.134v4.176h2.921V8.27h-2.921v7.376c0 1.275.717 1.41 1.859 1.41a10 10 0 0 0 1.301-.081v2.739c-.584.108-1.381.19-2.204.19-2.656 0-4.09-.841-4.09-3.742M119.113 19.984c-2.655 0-4.7-1.654-4.7-4.203 0-2.712 1.992-3.905 4.674-4.475l3.85-.813v-.244c0-1.356-.689-2.197-2.39-2.197-1.513 0-2.31.705-2.682 2.088l-3-.705c.69-2.359 2.735-4.203 5.815-4.203 3.347 0 5.364 1.627 5.364 4.908v6.129c0 .814.346 1.058 1.222.95v2.521c-2.31.271-3.532-.19-4.01-1.356-.876 1.004-2.337 1.6-4.143 1.6m3.824-5.26v-1.736l-3 .65c-1.354.299-2.364.733-2.364 2.007 0 1.112.797 1.736 2.018 1.736 1.7 0 3.346-.922 3.346-2.658"/></svg>
